lib/assets/images/chat.svg

<svg width="110" height="100" viewBox="0 0 110 100" fill="none" xmlns="http://www.w3.org/2000/svg">
<path d="M104.12 74.577C104 79.096 103.251 83.5754 101.894 87.8832C101.863 87.9832 101.83 88.0817 101.798 88.1817H93.4896C93.4985 88.0921 93.5074 87.9922 93.5162 87.8832C94.0702 81.4509 97.2641 42.3021 93.4453 35.6072C93.7792 36.1503 104.764 54.1387 104.12 74.577Z" fill="#E6E6E6"/>
<path d="M103.495 87.8833C103.426 87.9833 103.353 88.0833 103.279 88.1817H97.0469C97.0941 88.0967 97.1488 87.9967 97.2123 87.8833C98.242 86.0063 101.29 80.3946 104.119 74.5771C107.159 68.3253 109.948 61.8363 109.713 59.4878C109.785 60.0175 111.889 76.1646 103.495 87.8833Z" fill="#E6E6E6"/>
<path d="M8.17744 81.4367C8.23625 83.6554 8.60421 85.8547 9.27048 87.9697C9.28571 88.0188 9.30167 88.0671 9.31762 88.1162H13.3967C13.3924 88.0723 13.388 88.0232 13.3837 87.9697C13.1117 84.8116 11.5436 65.5905 13.4185 62.3035C13.2546 62.5701 7.86121 71.402 8.17744 81.4367Z" fill="#E6E6E6"/>
<path d="M8.48416 87.9698C8.51825 88.0189 8.5538 88.068 8.59006 88.1163H11.6501C11.6269 88.0746 11.6001 88.0255 11.5689 87.9698C11.0633 87.0482 9.56705 84.2931 8.17809 81.4368C6.68541 78.3673 5.31604 75.1814 5.43136 74.0283C5.39582 74.2884 4.36299 82.2162 8.48416 87.9698Z" fill="#E6E6E6"/>
<path d="M86.2116 88.17H43.6265C43.4174 88.1698 43.217 88.0858 43.0691 87.9365C42.9213 87.7872 42.8381 87.5847 42.8379 87.3735V76.7042C42.8381 76.4931 42.9213 76.2906 43.0691 76.1413C43.217 75.992 43.4174 75.908 43.6265 75.9077H86.2116C86.4206 75.908 86.6211 75.992 86.7689 76.1413C86.9168 76.2906 86.9999 76.4931 87.0002 76.7042V87.3735C86.9999 87.5847 86.9168 87.7872 86.7689 87.9365C86.6211 88.0858 86.4206 88.1698 86.2116 88.17ZM43.6265 76.2263C43.5011 76.2265 43.3808 76.2768 43.2921 76.3664C43.2034 76.456 43.1535 76.5775 43.1533 76.7042V87.3735C43.1535 87.5002 43.2034 87.6217 43.2921 87.7113C43.3808 87.8009 43.5011 87.8513 43.6265 87.8514H86.2116C86.337 87.8513 86.4573 87.8009 86.546 87.7113C86.6347 87.6217 86.6846 87.5002 86.6847 87.3735V76.7042C86.6846 76.5775 86.6347 76.456 86.546 76.3664C86.4573 76.2768 86.337 76.2265 86.2116 76.2263H43.6265Z" fill="white"/>
<path d="M50.2436 84.8741C52.0178 84.8741 53.456 83.4215 53.456 81.6296C53.456 79.8376 52.0178 78.385 50.2436 78.385C48.4695 78.385 47.0312 79.8376 47.0312 81.6296C47.0312 83.4215 48.4695 84.8741 50.2436 84.8741Z" fill="white"/>
<path d="M57.6634 79.4666C57.5216 79.4668 57.3856 79.5239 57.2854 79.6253C57.1852 79.7266 57.1289 79.864 57.1289 80.0073C57.1289 80.1506 57.1852 80.288 57.2854 80.3894C57.3856 80.4907 57.5216 80.5478 57.6634 80.5481H82.9036C83.0456 80.5481 83.1817 80.4911 83.2822 80.3897C83.3826 80.2883 83.439 80.1507 83.439 80.0073C83.439 79.8639 83.3826 79.7263 83.2822 79.6249C83.1817 79.5235 83.0456 79.4666 82.9036 79.4666H57.6634Z" fill="white"/>
<path d="M57.6623 82.7109C57.5204 82.7109 57.3842 82.7679 57.2838 82.8693C57.1834 82.9707 57.127 83.1083 57.127 83.2517C57.127 83.3951 57.1834 83.5327 57.2838 83.6341C57.3842 83.7355 57.5204 83.7924 57.6623 83.7924H68.5233C68.6653 83.7924 68.8014 83.7355 68.9018 83.6341C69.0023 83.5327 69.0587 83.3951 69.0587 83.2517C69.0587 83.1083 69.0023 82.9707 68.9018 82.8693C68.8014 82.7679 68.6653 82.7109 68.5233 82.7109H57.6623Z" fill="white"/>
<path d="M96.8483 72.3541H54.2632C54.0541 72.3539 53.8537 72.2699 53.7059 72.1206C53.558 71.9712 53.4749 71.7688 53.4746 71.5576V60.8883C53.4749 60.6771 53.558 60.4747 53.7059 60.3254C53.8537 60.176 54.0541 60.092 54.2632 60.0918H96.8483C97.0574 60.092 97.2578 60.176 97.4056 60.3254C97.5535 60.4747 97.6366 60.6771 97.6369 60.8883V71.5576C97.6366 71.7688 97.5535 71.9712 97.4056 72.1206C97.2578 72.2699 97.0574 72.3539 96.8483 72.3541ZM54.2632 60.4104C54.1378 60.4105 54.0175 60.4609 53.9288 60.5505C53.8401 60.6401 53.7902 60.7616 53.7901 60.8883V71.5576C53.7902 71.6843 53.8401 71.8058 53.9288 71.8954C54.0175 71.985 54.1378 72.0354 54.2632 72.0355H96.8483C96.9737 72.0354 97.094 71.985 97.1827 71.8954C97.2714 71.8058 97.3213 71.6843 97.3214 71.5576V60.8883C97.3213 60.7616 97.2714 60.6401 97.1827 60.5505C97.094 60.4609 96.9737 60.4105 96.8483 60.4104H54.2632Z" fill="white"/>
<path d="M60.8804 69.0584C62.6545 69.0584 64.0927 67.6058 64.0927 65.8139C64.0927 64.022 62.6545 62.5693 60.8804 62.5693C59.1062 62.5693 57.668 64.022 57.668 65.8139C57.668 67.6058 59.1062 69.0584 60.8804 69.0584Z" fill="white"/>
<path d="M68.3001 63.6506C68.1583 63.6509 68.0223 63.708 67.9221 63.8093C67.8219 63.9107 67.7656 64.0481 67.7656 64.1914C67.7656 64.3347 67.8219 64.4721 67.9221 64.5734C68.0223 64.6748 68.1583 64.7319 68.3001 64.7322H93.5403C93.6823 64.7322 93.8185 64.6752 93.9189 64.5738C94.0193 64.4724 94.0757 64.3348 94.0757 64.1914C94.0757 64.048 94.0193 63.9104 93.9189 63.809C93.8185 63.7076 93.6823 63.6506 93.5403 63.6506H68.3001Z" fill="white"/>
<path d="M68.2991 66.895C68.1571 66.895 68.0209 66.952 67.9205 67.0534C67.8201 67.1548 67.7637 67.2924 67.7637 67.4358C67.7637 67.5792 67.8201 67.7167 67.9205 67.8182C68.0209 67.9196 68.1571 67.9765 68.2991 67.9765H79.16C79.302 67.9765 79.4382 67.9196 79.5386 67.8182C79.639 67.7167 79.6954 67.5792 79.6954 67.4358C79.6954 67.2924 79.639 67.1548 79.5386 67.0534C79.4382 66.952 79.302 66.895 79.16 66.895H68.2991Z" fill="white"/>
<path d="M88.5748 45.6462H45.9898C45.7807 45.646 45.5803 45.562 45.4324 45.4126C45.2846 45.2633 45.2014 45.0609 45.2012 44.8497V8.06921C45.2014 7.85804 45.2846 7.65559 45.4324 7.50627C45.5803 7.35695 45.7807 7.27295 45.9898 7.27271H88.5748C88.7839 7.27295 88.9843 7.35695 89.1322 7.50627C89.28 7.65559 89.3632 7.85804 89.3634 8.06921V44.8497C89.3632 45.0609 89.28 45.2633 89.1322 45.4126C88.9843 45.562 88.7839 45.646 88.5748 45.6462ZM45.9898 7.59131C45.8643 7.59145 45.7441 7.64184 45.6554 7.73144C45.5666 7.82103 45.5168 7.94251 45.5166 8.06922V44.8497C45.5168 44.9764 45.5666 45.0979 45.6554 45.1875C45.7441 45.2771 45.8643 45.3275 45.9898 45.3276H88.5748C88.7003 45.3275 88.8206 45.2771 88.9093 45.1875C88.998 45.0979 89.0479 44.9764 89.048 44.8497V8.06921C89.0479 7.94251 88.998 7.82103 88.9093 7.73143C88.8206 7.64184 88.7003 7.59144 88.5748 7.5913L45.9898 7.59131Z" fill="white"/>
<path d="M52.6069 42.3502C54.3811 42.3502 55.8193 40.8976 55.8193 39.1056C55.8193 37.3137 54.3811 35.8611 52.6069 35.8611C50.8328 35.8611 49.3945 37.3137 49.3945 39.1056C49.3945 40.8976 50.8328 42.3502 52.6069 42.3502Z" fill="white"/>
<path d="M60.0276 36.9424C59.8856 36.9424 59.7494 36.9994 59.649 37.1008C59.5486 37.2022 59.4922 37.3397 59.4922 37.4831C59.4922 37.6266 59.5486 37.7641 59.649 37.8655C59.7494 37.9669 59.8856 38.0239 60.0276 38.0239H85.2677C85.4097 38.0239 85.5459 37.9669 85.6463 37.8655C85.7467 37.7641 85.8031 37.6266 85.8031 37.4831C85.8031 37.3397 85.7467 37.2022 85.6463 37.1008C85.5459 36.9994 85.4097 36.9424 85.2677 36.9424H60.0276Z" fill="white"/>
<path d="M60.0276 40.1873C59.8856 40.1873 59.7494 40.2442 59.649 40.3456C59.5486 40.4471 59.4922 40.5846 59.4922 40.728C59.4922 40.8714 59.5486 41.009 59.649 41.1104C59.7494 41.2118 59.8856 41.2688 60.0276 41.2688H70.8885C71.0305 41.2688 71.1667 41.2118 71.2671 41.1104C71.3675 41.009 71.4239 40.8714 71.4239 40.728C71.4239 40.5846 71.3675 40.4471 71.2671 40.3456C71.1667 40.2442 71.0305 40.1873 70.8885 40.1873H60.0276Z" fill="white"/>
<path d="M18.9503 46.8461L19.4315 50.8737C19.4706 51.2016 19.5823 51.5153 19.7574 51.7897C19.9326 52.0641 20.1664 52.2916 20.4401 52.454C20.7139 52.6163 21.02 52.7091 21.334 52.7248C21.648 52.7405 21.9611 52.6787 22.2482 52.5444C22.5029 52.4253 22.7313 52.2519 22.919 52.0351C23.1066 51.8184 23.2494 51.5631 23.3383 51.2853C23.4273 51.0076 23.4604 50.7134 23.4356 50.4215C23.4108 50.1296 23.3286 49.8463 23.1943 49.5895L21.1709 45.7214L20.5093 29.0908L16.2305 30.1399L18.9503 46.8461Z" fill="#FFB8B8"/>
<path d="M35.9788 84.223L32.514 84.5454L30.4666 55.3759L30.3879 62.8697L22.8283 83.4978L19.8359 81.0805L24.7969 60.533L22.4345 49.0908H37.8687L35.9788 84.223Z" fill="#007ABA"/>
<path d="M39.3014 88.1818L32.6039 88.0189C32.331 88.0389 32.057 87.9971 31.8026 87.8967C31.5482 87.7963 31.3198 87.6399 31.1347 87.4392C30.9495 87.2385 30.8124 86.9986 30.7334 86.7376C30.6545 86.4767 30.6358 86.2013 30.6788 85.9321L30.9533 84.2145C31.0056 83.8868 31.1677 83.5865 31.4132 83.3622C31.6587 83.138 31.9732 83.0031 32.3054 82.9794C33.4485 84.1577 34.6309 83.9837 35.8446 82.7273L38.6056 85.517L39.0179 85.4618C39.344 85.4181 39.675 85.4925 39.9507 85.6715C40.2264 85.8504 40.4285 86.122 40.52 86.4368C40.5769 86.6325 40.5893 86.8384 40.5561 87.0394C40.5229 87.2404 40.4451 87.4315 40.3283 87.5987C40.2115 87.7659 40.0587 87.9051 39.8811 88.0059C39.7034 88.1068 39.5053 88.1669 39.3014 88.1818Z" fill="#2F2E41"/>
<path d="M24.3487 88.0823L18.2673 85.4148C18.0195 85.3061 17.796 85.1336 17.6136 84.9103C17.4312 84.687 17.2947 84.4186 17.2141 84.1253C17.1335 83.8319 17.1111 83.5212 17.1484 83.2163C17.1857 82.9115 17.2819 82.6204 17.4296 82.3648L18.3726 80.7341C18.5525 80.4231 18.8176 80.1919 19.1248 80.0782C19.432 79.9645 19.7632 79.975 20.0647 80.108C20.5869 81.8567 21.6963 82.2378 23.2756 81.5244L24.8267 85.0216L25.2113 85.1601C25.5155 85.2696 25.7758 85.5026 25.9448 85.8165C26.1138 86.1304 26.1802 86.5044 26.1319 86.8704C26.1019 87.0979 26.0286 87.3147 25.9174 87.505C25.8061 87.6954 25.6597 87.8544 25.4888 87.9706C25.3179 88.0867 25.1268 88.157 24.9296 88.1764C24.7323 88.1957 24.5339 88.1636 24.3487 88.0823Z" fill="#2F2E41"/>
<path d="M30.2058 12.7272C32.4466 12.7272 34.2632 10.8957 34.2632 8.63632C34.2632 6.37697 32.4466 4.54541 30.2058 4.54541C27.965 4.54541 26.1484 6.37697 26.1484 8.63632C26.1484 10.8957 27.965 12.7272 30.2058 12.7272Z" fill="#FFB8B8"/>
<path d="M30.6565 16.3635L23.4434 16.1983C25.4254 13.9371 26.6293 11.5782 26.8095 9.09082H30.6565V16.3635Z" fill="#FFB8B8"/>
<path d="M37.868 51.8181C31.4083 50.0519 25.3473 48.8615 21.5963 51.0079C22.2532 43.6487 21.4934 34.2547 19.2393 24.4364C18.5072 21.2474 19.0038 18.3738 21.6724 16.7332L25.246 14.5454L30.7206 14.7075L33.577 16.3915C34.9738 17.1352 36.1046 18.3444 36.7977 19.8355C37.4909 21.3265 37.7084 23.0178 37.4174 24.6526C35.8827 33.2589 36.712 42.5477 37.868 51.8181Z" fill="#2EB9F2"/>
<path d="M39.9569 46.2054L40.5529 50.2829C40.6014 50.6149 40.5678 50.9531 40.4549 51.2704C40.342 51.5878 40.1528 51.8755 39.9026 52.1106C39.6523 52.3456 39.3479 52.5215 39.0136 52.6241C38.6794 52.7267 38.3247 52.7532 37.9778 52.7014C37.6702 52.6556 37.3759 52.5492 37.1136 52.3891C36.8513 52.229 36.6266 52.0187 36.4538 51.7714C36.2811 51.5241 36.1639 51.2453 36.1099 50.9526C36.0558 50.6599 36.066 50.3596 36.1398 50.0708L37.251 45.721L33.3613 29.2523L38.2657 29.0908L39.9569 46.2054Z" fill="#FFB8B8"/>
<path d="M22.5412 30.9092L15.3281 30.4491C15.8917 23.3593 17.4954 19.4835 19.9322 18.1819L22.5412 21.2487V30.9092Z" fill="#2EB9F2"/>
<path d="M32.9113 7.23313C31.588 6.75221 30.9012 9.83464 28.9384 11.7461C28.4922 12.1807 27.379 10.4864 26.988 11.0077L26.3559 8.82227C25.606 6.2294 26.9574 3.40281 29.3071 2.83309C29.3694 2.81796 29.4324 2.80439 29.4958 2.79236C30.5206 2.59842 31.5724 2.84152 32.449 3.47494C33.3256 4.10836 33.9652 5.08742 34.2449 6.224C34.2641 6.30682 34.2682 6.39319 34.2571 6.47788C34.246 6.56258 34.22 6.64384 34.1804 6.71676C34.1409 6.78967 34.0888 6.85273 34.0272 6.90211C33.9656 6.95149 33.8959 6.98618 33.8222 7.00407L32.9113 7.23313Z" fill="#2F2E41"/>
<path d="M39.6721 29.3939L32.7726 30.9091L32.459 20L36.3792 20.1515L39.6721 29.3939Z" fill="#2EB9F2"/>
<path d="M109.055 87.8835H0V88.1819H109.055V87.8835Z" fill="#E6E6E6"/>
<path d="M98.694 32.8178H56.1089C55.8998 32.8176 55.6994 32.7336 55.5516 32.5843C55.4037 32.4349 55.3206 32.2325 55.3203 32.0213V13.1456C55.3206 12.9345 55.4037 12.732 55.5516 12.5827C55.6994 12.4334 55.8998 12.3494 56.1089 12.3491H98.694C98.903 12.3494 99.1035 12.4334 99.2513 12.5827C99.3992 12.732 99.4823 12.9345 99.4826 13.1456V32.0213C99.4823 32.2325 99.3992 32.4349 99.2513 32.5843C99.1035 32.7336 98.903 32.8176 98.694 32.8178Z" fill="#007ABA"/>
<path d="M64.7804 18.9285C64.71 18.9283 64.6403 18.9423 64.5753 18.9694C64.5102 18.9965 64.4511 19.0363 64.4013 19.0865C64.3515 19.1368 64.3119 19.1964 64.285 19.2621C64.258 19.3277 64.2441 19.3981 64.2441 19.4692C64.2441 19.5403 64.258 19.6107 64.285 19.6764C64.3119 19.742 64.3515 19.8017 64.4013 19.8519C64.4511 19.9021 64.5102 19.942 64.5753 19.9691C64.6403 19.9962 64.71 20.0101 64.7804 20.01H90.0206C90.1626 20.01 90.2987 19.953 90.3991 19.8516C90.4996 19.7502 90.556 19.6126 90.556 19.4692C90.556 19.3258 90.4996 19.1883 90.3991 19.0869C90.2987 18.9854 90.1626 18.9285 90.0206 18.9285H64.7804Z" fill="white"/>
<path d="M64.7804 22.0615C64.71 22.0614 64.6403 22.0753 64.5753 22.1024C64.5102 22.1296 64.4511 22.1694 64.4013 22.2196C64.3515 22.2698 64.3119 22.3295 64.285 22.3951C64.258 22.4608 64.2441 22.5312 64.2441 22.6023C64.2441 22.6734 64.258 22.7438 64.285 22.8094C64.3119 22.8751 64.3515 22.9348 64.4013 22.985C64.4511 23.0352 64.5102 23.075 64.5753 23.1021C64.6403 23.1293 64.71 23.1432 64.7804 23.1431H90.0206C90.1626 23.1431 90.2987 23.0861 90.3991 22.9847C90.4996 22.8833 90.556 22.7457 90.556 22.6023C90.556 22.4589 90.4996 22.3213 90.3991 22.2199C90.2987 22.1185 90.1626 22.0615 90.0206 22.0615H64.7804Z" fill="white"/>
<path d="M64.7815 25.1572C64.6395 25.1572 64.5033 25.2142 64.4029 25.3156C64.3025 25.417 64.2461 25.5546 64.2461 25.698C64.2461 25.8414 64.3025 25.9789 64.4029 26.0804C64.5033 26.1818 64.6395 26.2387 64.7815 26.2387H75.6424C75.7844 26.2387 75.9206 26.1818 76.021 26.0804C76.1214 25.9789 76.1778 25.8414 76.1778 25.698C76.1778 25.5546 76.1214 25.417 76.021 25.3156C75.9206 25.2142 75.7844 25.1572 75.6424 25.1572H64.7815Z" fill="white"/>
</svg>

<svg xmlns="http://www.w3.org/2000/svg" fill="none" viewBox="0 0 110 100"><path fill="#E6E6E6" d="M104.12 74.58c-.12 4.52-.87 9-2.23 13.3l-.1.3h-8.3l.03-.3c.55-6.43 3.74-45.58-.07-52.27.33.54 11.31 18.53 10.67 38.97Z"/><path fill="#E6E6E6" d="m103.5 87.88-.22.3h-6.23l.16-.3c1.03-1.87 4.08-7.49 6.9-13.3 3.05-6.25 5.84-12.74 5.6-15.1.08.54 2.18 16.68-6.21 28.4ZM8.18 81.44c.06 2.22.42 4.41 1.09 6.53l.05.15h4.08l-.02-.15c-.27-3.16-1.84-22.38.04-25.67-.17.27-5.56 9.1-5.24 19.14Z"/><path fill="#E6E6E6" d="m8.48 87.97.11.15h3.06l-.08-.15c-.5-.92-2-3.68-3.4-6.53-1.48-3.07-2.85-6.26-2.74-7.41-.03.26-1.07 8.19 3.05 13.94Z"/><path fill="#fff" d="M86.21 88.17H43.63a.79.79 0 0 1-.56-.23.8.8 0 0 1-.23-.57V76.7a.8.8 0 0 1 .23-.56.79.79 0 0 1 .56-.23H86.2c.21 0 .41.08.56.23a.8.8 0 0 1 .23.56v10.67a.8.8 0 0 1-.23.57.79.79 0 0 1-.56.23ZM43.63 76.23a.47.47 0 0 0-.34.14.48.48 0 0 0-.14.33v10.67c0 .13.05.25.14.34.1.1.21.14.34.14H86.2c.13 0 .25-.05.34-.14a.48.48 0 0 0 .13-.34V76.7a.48.48 0 0 0-.13-.33.47.47 0 0 0-.34-.14H43.63Z"/><path fill="#fff" d="M50.24 84.87a3.23 3.23 0 0 0 3.22-3.24c0-1.8-1.44-3.24-3.22-3.24a3.23 3.23 0 0 0-3.2 3.24c0 1.8 1.43 3.24 3.2 3.24ZM57.66 79.47a.53.53 0 0 0-.37.16.54.54 0 0 0 .37.92H82.9a.54.54 0 0 0 0-1.08H57.66ZM57.66 82.71a.53.53 0 0 0-.38.16.54.54 0 0 0 .38.92h10.86c.15 0 .28-.05.38-.16a.54.54 0 0 0-.38-.92H57.66ZM96.85 72.35H54.26c-.2 0-.4-.08-.55-.23a.8.8 0 0 1-.24-.56V60.89a.8.8 0 0 1 .24-.56.78.78 0 0 1 .55-.24h42.59a.8.8 0 0 1 .79.8v10.67a.8.8 0 0 1-.23.56.79.79 0 0 1-.56.23ZM54.26 60.41a.47.47 0 0 0-.33.14.48.48 0 0 0-.14.34v10.67c0 .12.05.25.14.34.09.08.2.14.33.14h42.59c.12 0 .24-.06.33-.14a.48.48 0 0 0 .14-.34V60.89a.48.48 0 0 0-.14-.34.47.47 0 0 0-.33-.14H54.26Z"/><path fill="#fff" d="M60.88 69.06a3.23 3.23 0 0 0 3.21-3.25c0-1.79-1.44-3.24-3.21-3.24a3.23 3.23 0 0 0-3.21 3.24c0 1.8 1.44 3.25 3.21 3.25ZM68.3 63.65a.53.53 0 0 0-.38.16.54.54 0 0 0 .38.92h25.24c.14 0 .28-.05.38-.16a.54.54 0 0 0-.38-.92H68.3ZM68.3 66.9a.53.53 0 0 0-.38.15.54.54 0 0 0 .38.93h10.86a.54.54 0 0 0 0-1.08H68.3ZM88.57 45.65H46a.79.79 0 0 1-.56-.24.8.8 0 0 1-.23-.56V8.07a.8.8 0 0 1 .23-.56.79.79 0 0 1 .56-.24h42.58a.8.8 0 0 1 .79.8v36.78a.8.8 0 0 1-.23.56.79.79 0 0 1-.56.24ZM46 7.59a.47.47 0 0 0-.33.14.48.48 0 0 0-.14.34v36.78c0 .13.05.25.14.34.08.09.2.14.33.14h42.58c.13 0 .25-.05.34-.14a.48.48 0 0 0 .14-.34V8.07a.48.48 0 0 0-.14-.34.47.47 0 0 0-.34-.14H46Z"/><path fill="#fff" d="M52.6 42.35a3.23 3.23 0 0 0 3.22-3.24c0-1.8-1.44-3.25-3.21-3.25a3.23 3.23 0 0 0-3.22 3.25c0 1.79 1.44 3.24 3.22 3.24ZM60.03 36.94a.53.53 0 0 0-.38.16.54.54 0 0 0 .38.92h25.24c.14 0 .28-.05.38-.15a.54.54 0 0 0-.38-.93H60.03ZM60.03 40.19a.53.53 0 0 0-.38.16.54.54 0 0 0 .38.92h10.86a.54.54 0 0 0 0-1.08H60.03Z"/><path fill="#FFB8B8" d="m18.95 46.85.48 4.02c.04.33.15.65.33.92.17.27.4.5.68.66a1.94 1.94 0 0 0 2.48-.41 2.14 2.14 0 0 0 .52-1.62 2.2 2.2 0 0 0-.25-.83l-2.02-3.87-.66-16.63-4.28 1.05 2.72 16.7Z"/><path fill="#007ABA" d="m35.98 84.22-3.47.33-2.04-29.17-.08 7.49-7.56 20.63-3-2.42 4.97-20.55-2.37-11.44h15.44l-1.9 35.13Z"/><path fill="#2F2E41" d="m39.3 88.18-6.7-.16a1.82 1.82 0 0 1-1.92-2.09l.27-1.72a1.47 1.47 0 0 1 1.36-1.23c1.14 1.18 2.32 1 3.53-.25l2.77 2.79.4-.06a1.38 1.38 0 0 1 1.55 1.58 1.37 1.37 0 0 1-1.26 1.14ZM24.35 88.08l-6.08-2.67c-.25-.1-.47-.28-.66-.5-.18-.22-.32-.5-.4-.78a2.36 2.36 0 0 1 .22-1.77l.94-1.63c.18-.3.45-.54.75-.65.31-.12.64-.1.94.03.53 1.75 1.64 2.13 3.22 1.41l1.55 3.5.38.14c.3.11.57.34.73.66a1.75 1.75 0 0 1-.02 1.69c-.11.19-.26.34-.43.46a1.16 1.16 0 0 1-1.14.11Z"/><path fill="#FFB8B8" d="M30.2 12.73a4.07 4.07 0 0 0 4.06-4.1c0-2.25-1.81-4.08-4.05-4.08a4.07 4.07 0 0 0-4.06 4.09c0 2.26 1.82 4.09 4.06 4.09Z"/><path fill="#FFB8B8" d="m30.66 16.36-7.22-.16c1.99-2.26 3.19-4.62 3.37-7.1h3.85v7.26Z"/><path fill="#2EB9F2" d="M37.87 51.82C31.4 50.05 25.35 48.86 21.6 51c.65-7.36-.1-16.76-2.36-26.57-.73-3.2-.24-6.07 2.43-7.7l3.58-2.2 5.47.17 2.86 1.68a7.43 7.43 0 0 1 3.22 3.45c.7 1.49.9 3.18.62 4.81-1.54 8.6-.7 17.9.45 27.17Z"/><path fill="#FFB8B8" d="m39.96 46.2.6 4.08a2.06 2.06 0 0 1-.66 1.83 2.27 2.27 0 0 1-1.92.6 2.31 2.31 0 0 1-1.53-.94 2.1 2.1 0 0 1-.31-1.7l1.11-4.35-3.89-16.47 4.9-.16 1.7 17.12Z"/><path fill="#2EB9F2" d="m22.54 30.9-7.21-.45c.56-7.1 2.17-10.97 4.6-12.27l2.61 3.07v9.66Z"/><path fill="#2F2E41" d="M32.91 7.23c-1.32-.48-2 2.6-3.97 4.52-.45.43-1.56-1.26-1.95-.74l-.63-2.19c-.75-2.6.6-5.42 2.95-5.99a3.8 3.8 0 0 1 3.14.64 4.78 4.78 0 0 1 1.8 2.75.72.72 0 0 1-.07.5.6.6 0 0 1-.15.18.53.53 0 0 1-.2.1l-.92.23Z"/><path fill="#2EB9F2" d="m39.67 29.4-6.9 1.5-.31-10.9 3.92.15 3.3 9.24Z"/><path fill="#E6E6E6" d="M109.06 87.88H0v.3h109.06v-.3Z"/><path fill="#007ABA" d="M98.7 32.82H56.1a.79.79 0 0 1-.55-.24.8.8 0 0 1-.23-.56V13.15a.8.8 0 0 1 .23-.57.79.79 0 0 1 .56-.23h42.58c.21 0 .41.08.56.23a.8.8 0 0 1 .23.57v18.87a.8.8 0 0 1-.23.56.79.79 0 0 1-.56.24Z"/><path fill="#fff" d="M64.78 18.93a.53.53 0 0 0-.5.33.54.54 0 0 0 .3.7c.06.04.13.05.2.05h25.24a.54.54 0 0 0 0-1.08H64.78ZM64.78 22.06a.53.53 0 0 0-.5.34.55.55 0 0 0 .3.7c.06.03.13.04.2.04h25.24c.14 0 .28-.05.38-.16a.54.54 0 0 0-.38-.92H64.78ZM64.78 25.16a.53.53 0 0 0-.38.16.54.54 0 0 0 .38.92h10.86a.54.54 0 0 0 0-1.08H64.78Z"/></svg>
